X: 1
T: Pentatonic
M: 2/4
L: 1/8
R: polka
K: Gmaj
G2d2|G>A Bd|eg g>e|dB AG|
B2d2|eg3|e>g ge|d>B AG:|
